images/foodle/icons/Icon-04-Visual-Design.svg

<svg width="136" height="125" viewBox="0 0 136 125" fill="none" xmlns="http://www.w3.org/2000/svg">
<path d="M63.3761 0.0526711C83.4521 0.0526711 103.538 0.0841545 123.614 0.00019874C125.734 -0.0102957 126.469 0.388494 126.437 2.70777C126.301 13.2442 126.469 23.7807 126.312 34.3066C126.27 36.8358 127.057 37.5284 129.397 37.2451C130.53 37.1087 131.79 37.1716 132.86 37.5179C134.823 38.1476 135.736 39.7008 135.736 41.7577C135.746 46.4383 135.788 51.1293 135.715 55.8098C135.673 58.8112 134.046 60.27 130.94 60.3434C126.374 60.4484 126.374 60.4484 126.374 64.961C126.374 84.04 126.343 103.119 126.416 122.187C126.427 124.265 126.091 125.01 123.74 125C83.3261 124.916 42.9119 124.926 2.49768 124.979C0.608679 124.979 0 124.612 0 122.565C0.0944503 82.5812 0.0944503 42.5868 0.020989 2.59233C0.020989 0.47245 0.566702 -0.0102957 2.63411 0.00019874C22.8885 0.0841545 43.1323 0.0526711 63.3761 0.0526711ZM116.079 60.6058C115.082 60.5743 114.075 60.5323 113.078 60.5218C91.176 60.5218 69.274 60.3854 47.3721 60.6058C41.7785 60.6583 36.7621 59.7452 31.9032 56.9327C26.8659 54.0258 21.5347 51.612 15.9306 48.789C23.7595 44.8431 31.2001 41.0861 38.6302 37.329C39.3438 36.9722 40.0994 37.0562 40.8445 37.0562C44.9373 37.0667 49.0407 37.0877 53.1335 37.0877C74.112 37.0667 95.1009 37.0457 116.079 37.0247C116.908 37.0772 117.748 37.0667 118.567 37.2136C120.665 37.5704 121.253 36.7623 121.159 34.6635C120.97 30.6546 121.001 26.6352 121.148 22.6263C121.222 20.7688 120.739 20.2755 118.839 20.286C81.8674 20.349 44.8849 20.349 7.91283 20.286C5.85592 20.286 5.4991 20.9157 5.4991 22.7942C5.55158 54.2461 5.56207 85.6981 5.48861 117.15C5.48861 119.186 5.92938 119.795 8.05976 119.795C44.8639 119.721 81.6785 119.721 118.483 119.805C120.833 119.816 121.148 119.081 121.138 117.003C121.054 99.7712 121.096 82.5392 121.096 65.3073C121.085 60.27 121.085 60.27 116.079 60.6058ZM63.3551 5.35238C46.2806 5.35238 29.2166 5.34189 12.1421 5.37337C9.99074 5.37337 7.06278 4.40788 5.91888 5.79315C4.83795 7.10496 5.71949 9.93847 5.4991 12.0793C5.25773 14.3461 6.00284 14.9443 8.31162 14.9338C43.6255 14.8499 78.9394 14.8814 114.253 14.8604C116.478 14.8604 119.532 15.8469 120.707 14.4301C121.83 13.0763 120.917 10.1274 121.138 7.90254C121.348 5.83513 120.718 5.28941 118.588 5.29991C100.17 5.38386 81.7625 5.35238 63.3551 5.35238ZM81.9514 46.0709C93.8206 46.0709 105.69 46.0395 117.57 46.1129C119.364 46.1234 119.889 45.5357 119.773 43.8146C119.658 41.9361 118.315 42.5343 117.391 42.5343C93.7366 42.5028 70.0716 42.5133 46.4171 42.5028C45.0843 42.5028 44.0243 42.3979 44.0558 44.3708C44.0873 46.4697 45.4096 46.0709 46.5955 46.0709C58.3703 46.0709 70.1661 46.0709 81.9514 46.0709ZM81.7939 55.1067C93.6737 55.1067 105.553 55.0647 117.423 55.1487C119.333 55.1592 119.973 54.603 119.752 52.7349C119.511 50.7305 118.021 51.5176 117.066 51.5176C93.6422 51.4756 70.229 51.4861 46.8054 51.4861C46.3856 51.4861 45.9658 51.5176 45.546 51.4861C44.4546 51.4021 44.1817 51.9479 44.0768 52.9763C43.8774 54.8653 44.7589 55.1592 46.4066 55.1487C58.2024 55.0857 69.9981 55.1067 81.7939 55.1067ZM27.7894 48.8205C31.6094 50.7095 35.062 52.4201 38.6197 54.1832C38.6197 50.4157 38.6197 47.0259 38.6197 43.3424C35.0201 45.1684 31.6303 46.8895 27.7894 48.8205ZM126.364 48.6211C126.364 50.2792 126.448 51.9479 126.343 53.606C126.217 55.453 127.476 55.0227 128.484 55.0437C129.533 55.0647 130.646 55.3586 130.572 53.543C130.446 50.3947 130.467 47.2253 130.572 44.077C130.614 42.6393 129.974 42.5553 128.809 42.4608C126.899 42.3034 126.081 42.8701 126.343 44.8851C126.5 46.1129 126.364 47.3723 126.364 48.6211Z" fill="#2D3138"/>
<path d="M116.069 37.0352C95.0903 37.0562 74.1013 37.0877 53.1228 37.0981C49.03 37.0981 44.9267 37.0772 40.8338 37.0667C40.0887 37.0667 39.3331 36.9827 38.6195 37.3395C31.1894 41.0965 23.7488 44.8431 15.9199 48.7995C21.5135 51.6225 26.8447 54.0362 31.8925 56.9432C36.762 59.7557 41.7678 60.6687 47.3614 60.6163C69.2634 60.3959 91.1653 60.5218 113.067 60.5323C114.064 60.5323 115.072 60.5848 116.069 60.6058C116.069 65.0344 115.964 69.4736 116.111 73.9023C116.174 75.8437 115.649 76.4104 113.644 76.4104C80.1041 76.3475 46.5638 76.3475 13.0235 76.4C11.124 76.4 10.4733 75.9907 10.4838 73.9442C10.5678 58.4754 10.5678 42.996 10.4838 27.5272C10.4733 25.6487 10.977 25.1449 12.8556 25.1554C23.7278 25.2499 34.6001 25.1974 45.4724 25.1974C68.2244 25.1974 90.9764 25.2184 113.728 25.1554C115.575 25.1554 116.205 25.5752 116.1 27.4957C115.943 30.6755 116.069 33.8554 116.069 37.0352Z" fill="#3537E5"/>
<path d="M81.9512 46.0713C70.1659 46.0713 58.3806 46.0713 46.5848 46.0608C45.3989 46.0608 44.0871 46.4596 44.0451 44.3607C44.0136 42.3877 45.0736 42.4927 46.4064 42.4927C70.0609 42.5032 93.726 42.4927 117.381 42.5241C118.304 42.5241 119.637 41.926 119.763 43.8045C119.868 45.5256 119.353 46.1133 117.559 46.1028C105.69 46.0398 93.8204 46.0713 81.9512 46.0713Z" fill="#F9C686"/>
<path d="M81.7938 55.1069C69.998 55.1069 58.2022 55.0754 46.4169 55.1384C44.7693 55.1489 43.8878 54.855 44.0872 52.966C44.1921 51.9376 44.4755 51.4023 45.5564 51.4758C45.9762 51.5073 46.3959 51.4758 46.8157 51.4758C70.2394 51.4758 93.6526 51.4653 117.076 51.5073C118.031 51.5073 119.532 50.7307 119.763 52.7247C119.983 54.5927 119.333 55.1489 117.433 55.1384C105.543 55.0649 93.6631 55.1069 81.7938 55.1069Z" fill="#F9C686"/>
<path d="M10.5575 98.4908C10.5575 93.8103 10.631 89.1297 10.526 84.4492C10.4841 82.6546 10.9143 81.962 12.8663 81.983C22.0595 82.0775 31.2631 82.0775 40.4563 81.983C42.3348 81.962 42.8805 82.5077 42.8595 84.3862C42.7756 93.7473 42.7861 103.119 42.849 112.48C42.8595 114.17 42.4502 114.81 40.6347 114.789C31.3576 114.705 22.07 114.705 12.7928 114.789C11.0508 114.799 10.4736 114.306 10.5155 112.543C10.631 107.852 10.568 103.171 10.5575 98.4908Z" fill="#F34213"/>
<path d="M79.9155 98.2599C79.9155 103.024 79.8735 107.799 79.9365 112.564C79.9575 114.065 79.7266 114.81 77.932 114.789C68.8123 114.694 59.6927 114.705 50.5834 114.778C48.9148 114.789 48.4111 114.254 48.4216 112.627C48.4741 103.087 48.4741 93.5584 48.4216 84.0189C48.4111 82.4552 48.8099 81.7836 50.5205 81.7941C59.7241 81.8571 68.9278 81.8571 78.1209 81.7941C79.5797 81.7836 79.968 82.3083 79.947 83.6936C79.8735 88.5525 79.9155 93.4115 79.9155 98.2599Z" fill="#D68A2A"/>
<path d="M116.069 98.4909C116.069 103.255 116.017 108.03 116.101 112.795C116.132 114.359 115.597 114.778 114.086 114.768C105.302 114.705 96.5074 114.694 87.7235 114.778C85.9185 114.799 85.4462 114.149 85.4672 112.449C85.5302 103.077 85.5302 93.7055 85.4672 84.3339C85.4567 82.6653 85.8345 81.9726 87.6711 81.9936C96.4549 82.0776 105.239 82.0776 114.033 81.9936C115.765 81.9831 116.122 82.6338 116.101 84.187C116.027 88.9515 116.069 93.7265 116.069 98.4909Z" fill="#F34213"/>
<path d="M8.56356 10.0747C8.15428 8.17524 8.6685 7.41964 10.8933 7.32519C13.454 7.22024 13.37 8.42711 13.4645 10.2636C13.5799 12.3625 12.8768 12.8243 10.8409 12.8873C8.46911 12.9607 8.25922 11.8798 8.56356 10.0747Z" fill="#2D3138"/>
<path d="M16.938 10.1171C16.5182 8.17566 17.0639 7.44105 19.2887 7.32561C21.8809 7.18918 21.7339 8.43802 21.8284 10.2431C21.9333 12.2475 21.4506 12.9087 19.2992 12.8982C17.0429 12.8877 16.5182 12.0481 16.938 10.1171Z" fill="#2D3138"/>
<path d="M30.0666 10.306C30.6857 12.5938 29.4264 12.7093 27.5269 12.8877C24.7144 13.15 25.2916 11.4499 25.1342 9.83379C24.9243 7.81885 25.7009 7.45154 27.6004 7.3466C30.0876 7.21017 30.4234 8.33308 30.0666 10.306Z" fill="#2D3138"/>
</svg>

<svg xmlns="http://www.w3.org/2000/svg" width="136" height="125" fill="none"><path d="M63.376.053L123.614 0c2.12-.01 2.855.388 2.823 2.708l-.125 31.6c-.042 2.53.745 3.222 3.085 2.938 1.133-.136 2.393-.074 3.463.273 1.963.63 2.876 2.183 2.876 4.24l-.02 14.052c-.042 3-1.67 4.46-4.775 4.534-4.566.105-4.566.105-4.566 4.618l.042 57.226c.01 2.078-.325 2.823-2.676 2.813l-121.242-.02c-1.89 0-2.498-.367-2.498-2.414L.02 2.592C.02.472.567-.01 2.634 0l60.742.052zm52.703 60.553l-3-.084c-21.902 0-43.804-.136-65.706.084-5.594.052-10.6-.86-15.47-3.673-5.037-2.907-10.368-5.32-15.973-8.144l22.7-11.46c.714-.357 1.47-.273 2.214-.273l12.29.032 62.945-.063c.83.052 1.67.042 2.488.19 2.098.357 2.686-.45 2.592-2.55-.19-4.01-.158-8.028-.01-12.037.074-1.858-.41-2.35-2.31-2.34H7.913c-2.057 0-2.414.63-2.414 2.508l-.01 94.356c0 2.036.44 2.645 2.57 2.645l110.423.01c2.35.01 2.665-.724 2.655-2.802l-.042-51.696c-.01-5.037-.01-5.037-5.017-4.7zM63.355 5.352c-17.074 0-34.138-.01-51.213.02-2.15 0-5.08-.965-6.223.42-1.08 1.312-.2 4.145-.42 6.286-.24 2.267.504 2.865 2.813 2.855l105.94-.073c2.225 0 5.28.986 6.454-.43 1.123-1.354.2-4.303.43-6.528.2-2.067-.42-2.613-2.55-2.603l-55.233.052zM81.95 46.07l35.62.042c1.794.01 2.32-.577 2.203-2.298-.115-1.878-1.458-1.28-2.382-1.28l-70.974-.032c-1.333 0-2.393-.105-2.36 1.868.032 2.1 1.354 1.7 2.54 1.7H81.95zm-.158 9.036l35.63.042c1.9.01 2.55-.546 2.33-2.414-.24-2.004-1.73-1.217-2.686-1.217l-70.26-.032c-.42 0-.84.032-1.26 0-1.09-.084-1.364.462-1.47 1.5-.2 1.89.682 2.183 2.33 2.172l35.387-.042zM27.79 48.82l10.83 5.363v-10.84L27.79 48.82zm98.575-.2c0 1.658.084 3.327-.02 4.985-.126 1.847 1.133 1.417 2.14 1.438 1.05.02 2.162.315 2.088-1.5-.126-3.148-.105-6.318 0-9.466.042-1.438-.598-1.522-1.763-1.616-1.9-.157-2.728.41-2.466 2.424.157 1.228.02 2.487.02 3.736z" fill="#2d3138"/><path d="M116.07 37.035l-62.946.063c-4.093 0-8.196-.02-12.29-.03-.745 0-1.5-.084-2.214.273L15.92 48.8c5.594 2.823 10.925 5.237 15.973 8.144 4.87 2.813 9.875 3.726 15.47 3.673l65.706-.084c.997 0 2.005.053 3.002.074l.042 13.296c.063 1.94-.462 2.508-2.467 2.508H13.024c-1.9 0-2.55-.41-2.54-2.456V27.527c-.01-1.878.493-2.382 2.372-2.372l32.617.042 68.256-.042c1.847 0 2.477.42 2.372 2.34-.157 3.18-.03 6.36-.03 9.54z" fill="#3537e5"/><path d="M81.95 46.07c-11.785 0-23.57 0-35.366-.01-1.186 0-2.498.4-2.54-1.7-.032-1.973 1.03-1.868 2.36-1.868l70.975.03c.923 0 2.256-.598 2.382 1.28.105 1.72-.4 2.3-2.204 2.298l-35.607-.03zm-.156 9.037c-11.796 0-23.592-.032-35.377.03-1.648.01-2.53-.283-2.33-2.172.105-1.028.388-1.564 1.47-1.5.42.032.84 0 1.26 0l70.26.032c.955 0 2.456-.777 2.687 1.217.22 1.868-.43 2.424-2.33 2.414l-35.64-.03z" fill="#f9c686"/><path d="M10.558 98.49l-.03-14.042c-.042-1.795.388-2.487 2.34-2.466h27.6c1.88-.02 2.424.525 2.403 2.403l-.01 28.094c.01 1.7-.4 2.33-2.214 2.31a1538.07 1538.07 0 0 0-27.842 0c-1.742.01-2.32-.483-2.277-2.246.116-4.69.053-9.372.042-14.052z" fill="#f34213"/><path d="M79.916 98.26l.02 14.304c.02 1.5-.2 2.246-2.004 2.225l-27.35-.01c-1.67.01-2.172-.524-2.162-2.15V84.02c-.01-1.564.388-2.235 2.1-2.225h27.6c1.46-.01 1.847.514 1.826 1.9l-.032 14.566z" fill="#d68a2a"/><path d="M116.07 98.49l.032 14.304c.03 1.564-.504 1.983-2.015 1.973-8.784-.063-17.58-.074-26.362.01-1.805.02-2.277-.63-2.256-2.33V84.334c-.01-1.67.367-2.36 2.204-2.34h26.362c1.732-.01 2.09.64 2.068 2.193l-.032 14.304z" fill="#f34213"/><path d="M8.564 10.075c-.4-1.9.105-2.655 2.33-2.75 2.56-.105 2.477 1.102 2.57 2.938.115 2.1-.588 2.56-2.624 2.624-2.372.073-2.582-1.008-2.277-2.813zm8.374.042c-.42-1.94.126-2.676 2.35-2.8 2.592-.136 2.445 1.112 2.54 2.917.105 2.004-.378 2.666-2.53 2.655-2.256-.01-2.78-.85-2.36-2.78zm13.13.19c.62 2.288-.64 2.403-2.54 2.582-2.812.262-2.235-1.438-2.393-3.054-.2-2.015.567-2.382 2.466-2.487 2.487-.136 2.823.986 2.466 2.96z" fill="#2d3138"/></svg>
